X:1
T:O crux fidelis
T:Andrea Gabrieli
T:Source : Liber primus Ecclesiasticarum Cantionum---Venetia---Ang.Gardano---1576. Editor : André Vierendeels (12/09/17).
T:O crux fidelis
T:©
T:©
T:©
T:©
T:©
C:Andrea Gabrieli
Z:©
%%score [ 1 2 3 4 ]
L:1/8
Q:1/4=120
M:2/2
K:C
V:1 treble nm="Soprano" snm="S"
V:2 treble-8 nm="Tenor 1" snm="T 1"
V:3 treble-8 nm="Tenor 2" snm="T 2"
V:4 bass nm="Bass" snm="B"
V:1
 A8 | D6 F2 | F4 E2 E2- | E2 E2 A3 G | FE F3 EDE | FGAB cB A2- | A2 G2 E4 | z8 | z4 c4- | %9
w: O|crux fi-|de- lis in-|* ter o- *|||* * mnes,||O|
 c4 G2 G2 | A4 F2 A2- | AGFE D2 A2 |"^#""^#""^#" AG/F/ G2 A4 | z8 | z4 z2 d2- | d2 d2 c3 B | %16
w: _ crux fi-|de- lis in-|* * * * * ter|o- * * * mnes,||ar-|* bor u- *|
 A2 E2 G3 F | E2 E2 D2 A2- | A2 B2 cBAG | A2 E2 A2 A2 | A4 A4 | z4 z2 A2- | A2 d2 c4- | %23
w: * na no- *|* bi- lis, nul-|* la sil- * * *|* va ta- lem|pro- fert,|nul-|* la sil-|
 c2 B2 A2 G2 | F4 E4 | z2 A4 A2 | A2 d2 d2 ^c2 | d2 A4 G2 | A2 D2 ABcG | _BA A4 G2 | A2 F4 E2 | %31
w: * va ta- lem|pro- fert|fron- de|flo- re ger- mi-|ne, fron- de|flo- re ger- * * *|* * * mi-|ne, fron- de|
 F2 G2 F2 ED | E2 D2 E2 D2- | D2 C2 D4 | F8- | F4 E4 | D8 | E4 z4 | F8- | F4 E4 | D8 | E2 E4 F2 | %42
w: flo- re ger- * *||* mi- ne,|dul-|* ce|li-|gnum,|dul-|* ce|li-|gnum dul- ces|
 GF F4 E2 | F2 A4 G2 | c4 B2 B2- | B2 A4 G2 | A8 | z4 z2 D2- | D2 C2 F4 | E2 E4 C2 | F4 E2 E2- | %51
w: cla- * * *|vos dul- ce|pon- dus su-|* sti- nu-|it,|dul-|* ce pon-|dus dul- ce|pon- dus su-|
 E2 D4 C2 | D2 G4 F2 | _B4 A4- | A2 G4 F2- | F2 E2 F2 A2- | A2 G2 c4 | c2 A2 A2 E2 | ^F8 |] %59
w: * sti- nu-|it, dul- ce|pon- dus|_ su- sti-|* nu- it, dul-|* ce pon-|dus su- sti- nu-|it.|
V:2
 z8 | z4 d4- | d4 A4- | A2 c2 c4 | A2 A4 A2 | A3 G ABcA | B4 A2 c2- | c2 A4 f2 | f4 e4 | %9
w: |O|_ crux|_ fi- de-|lis in- ter|o- * * * * *|* mnes, O|_ crux fi-|de- lis|
 e3 d cB c2- | cBAG A2 A2 | d3 e f4 | e4 e4- | e4 z2 g2- | g2 g2 f4- | f2 ed f2 e2 | e2 A2 e2 d2- | %17
w: in- * * * *|* * * * * ter|o- * *|* mnes,|_ ar-|* bor u-|* * * * na|no- * * *|
"^#" d2 c2 d4- | d4 z2 d2- | d2 g2 f4- | f2 e2 d2 c2 | f4 e4 | z2 A4 e2 | d4 d2 e2 | %24
w: * bi- lis,|_ nul-|* la sil-|* va ta- lel|pro- fert,|nul- la|sil- va ta-|
 A2 d3 c/B/ c2 | d2 f4 e2 | f2 g2 f2 e2 | d3 c/B/ A2 c2- | c2 B2 c4 | d4 c2 B2 | A4 z4 | %31
w: lem pro- * * *|fert fron- de|flo- re ger- mi-|ne, _ _ _ fron-|* de flo-|re ger- mi-|ne,|
 A2 G2 A2 B2 | A3 B c2 G2 | A4 z4 | d8 | c4 c4- | c2 BA B4 | c4 z4 | d8 | c4 c4- | c2 BA B4 | %41
w: fron- de flo- re|ger- * * mi-|ne,|dul-|ce li-||gnum,|dul-|ce li-||
 c2 c4 d2 | d4 c4 | c4 z2 c2- | c2 c2 d4 | e2 c2 B2 B2 | A4 z4 | z8 | z4 z2 A2- | A2 G2 c4 | %50
w: gnum dul- cis|cla- *|vos dul-|* ce pon-|dus su- sti- nu-|it,||dul-|* ce pon-|
 A3 B c2 c2 | cBAG A2 A2 | A2 _B2 A2 A2 | G2 d4 A2 | c8- | c4 A3 B | cdef g2 e2- |"^#" e2 d4 c2 | %58
w: dus _ _ su-|sti- * * * * nu-|it, su- sti- nu-|it, dul- ce|pon-|* dus _|_ _ _ _ _ su|_ sti- nu-|
 d8 |] %59
w: it.|
V:3
 z8 | z8 | z8 | A8 | D6 F2 | F4 E2 E2- | E2 E2 A3 G | FE F3 EDE | FGAB cB A2- | A2 G2 E4 | %10
w: |||O|crux fi-|de- lis in-|* ter o- *|||* * mnes,|
 z2 F2 D2 F2- | FG A3 GAB | cB/A/ B2 A2 c2- | c2 c2 B4 | B2 cB AG A2- | A2 G2 A2 c2- | %16
w: in- ter o-||* * * * mnes ar-|* bor u-|na no- * * * *|* bi- lis, ar-|
 c2 c2 c2 G2 | A2 A2 D4 | z4 z2 D2- | D2 E2 FEDC | D2 C2 F2 F2 | A4 A4 | F6 E2 | F2 G2 F2 E2 | %24
w: * bor u- na|no- bi- lis,|nul-|* la sil- * * *|* va ta- lem|pro- fert,|fron- de|flo- re ger- mi-|
 D4 z4 | d6 ^c2 | d2 _B2 A2 A2 | D4 z4 | z8 | F4 E4 | F4 G4 | F2 E2 D2 G2- | G2 F2 G2 D2 | %33
w: ne,|fron- de|flo- re ger- mi-|ne,||fron- de|flo- re|ger- mi- ne, fron-|* de flo- re|
 E2 E2 D4 | _B8 | A4 G4 | G8 | G4 z4 | _B8 | A4 G4 | G8 | G2 G4 _B2 | _B3 A G4 | A2 F4 E2 | %44
w: ger- mi- ne,|dul-|ce _|li-|gnum,|dul-|ce _|li-|gnum dul- cis|cla- * *|vos, dul- ce|
 A4 G2 G2 | E4 E4 | A2 c2 c2 d2- | d2 B2 c2 A2- | A2 G2 A3 B | c4 z2 F2- | F2 F2 G4 | A2 F2 E2 E2 | %52
w: pon- dus su-|sti- nu-|it, dul- ce pon-|* dus su- sti-|* nu- it, _|_ dul-|* ce pon-|dus su- sti- nu-|
 D4 z4 | z4 z2 F2- | F2 E2 A4 | G2 G2 F2 F2 | C3 D EFGE | A2 F2 E2 E2 | D8 |] %59
w: it,|dul-|* ce pon-|dus su- sti- ni-|it, _ _ _ _ _|_ su- sti- nu-|it.|
V:4
 z8 | z8 | z8 | z8 | z4 D,4- | D,4 A,,4 | z8 | z4 D,4- | D,4 A,,4- | A,,2 C,2 C,4 | A,,2 D,4 D,2 | %11
w: ||||O|_ crux,||O|_ crux|_ fi- de-|lis in- ter|
 D,3 C, D,E,F,D, | E,4 A,,2 A,2- | A,2 A,2 G,3 F, | E,2 C,2 D,3 C, | _B,,2 B,,2 A,,4- | A,,4 z4 | %17
w: o- * * * * *|* mnes ar-|* bor u- *|* na no- *|* bi- lis,|_|
 z4 z2 D,2- | D,2 G,2 F,4- | F,2 E,2 D,3 E, | F,G, A,2 D,2 F,2- | F,E, D,4 C,2 | D,4 z4 | z8 | z8 | %25
w: nul-|* la sil-|* va ta- *|* * * lem pro-||fert,|||
 z8 | z8 | z2 F,4 E,2 | F,2 G,2 F,2 E,2 | D,4 z4 | z8 | z2 C,4 B,,2 | C,2 D,2 C,2 B,,2 | A,,4 z4 | %34
w: ||fron- de|flo- re ger- mi-|ne,||fron- de|flo- re ger- mi-|ne,|
 _B,,8 | F,,4 C,4 | G,,8 | C,4 z4 | _B,,8 | F,,4 C,4 | G,,8 | C,2 C,4 _B,,2 | _B,,4 C,4 | F,,4 z4 | %44
w: dul-|ce _|li-|gnum,|dul-|ce _|li-|gnum dul- ces|cla- *|ves|
 z8 | z8 | z2 F,4 F,2 |"^#" G,4 A,2 F,2 | E,2 E,2 D,4 | z2 C,4 A,,2 | D,4 C,2 C,2 | A,,4 A,,4 | %52
w: ||dul- ce|pon- dus su-|sti- nu- it,|dul- ce|pon- dus su-|sti- nu-|
 D,2 G,,2 D,2 D,2 | G,,4 z4 | z4 C,4- | C,2 C,2 D,4 | A,,2 E,2 C,4 | A,,4 A,,4 | D,8 |] %59
w: it, su- sti- nu-|it,|dul-|* ce pon-|* dus su-|sti- nu-|it.|

